!!!COM: Palestrina, Giovanni Perluigi da
!!!OPR: Missa In majoribus duplicibus
!!!OTL: Agnus I
**kern	**kern	**kern	**kern
*Ibass	*Itenor	*Icalto	*Icant
!Bassus	!Tenor	!Altus	!Cantus
*clefF4	*clefGv2	*clefG2	*clefG2
*k[]	*k[]	*k[]	*k[]
*?:X	*?:X	*?:X	*?:X
*M4/2	*M4/2	*M4/2	*M4/2
=1	=1	=1	=1
0r	0r	0B-	0r
=2	=2	=2	=2
0r	0r	1d	0f
.	.	1f	.
=3	=3	=3	=3
0r	0F	2d	1a
.	.	1c	.
.	.	.	1cc
.	.	[2f	.
=4	=4	=4	=4
0r	1A	2f]	1a
.	.	4e	.
.	.	4d	.
.	1c	4e	1g
.	.	4f	.
.	.	[2e	.
=5	=5	=5	=5
0r	1A	4e]	1cc
.	.	4d	.
.	.	1c	.
.	1G	.	1dd
.	.	2B-	.
=6	=6	=6	=6
0r	1c	2A	1cc
.	.	1a	.
.	1d	.	1f
.	.	4g	.
.	.	4f	.
=7	=7	=7	=7
0r	0c	2e	2g
.	.	1f	2a
.	.	.	1g
.	.	2e	.
=8	=8	=8	=8
0F	2r	2f	2.a
.	2c	2f	.
.	.	.	4b-
.	2F	1a	1cc
.	[2f	.	.
=9	=9	=9	=9
1A	2f]	1cc	1r
.	4e	.	.
.	4d	.	.
1c	1e	2a	1cc
.	.	2g	.
=10	=10	=10	=10
1A	2e	1.cc	1ee
.	2c	.	.
1G	1d	.	2.gg
.	.	2b-	.
.	.	.	4ff
=11	=11	=11	=11
1c	1e	2g	4ee
.	.	.	4dd
.	.	1a	4cc
.	.	.	4b-
1d	[1f	.	2a
.	.	4g	2b-
.	.	4f	.
=12	=12	=12	=12
0c	2f]	1g	1cc
.	4e	.	.
.	4d	.	.
.	1e	2r	1r
.	.	2g	.
=13	=13	=13	=13
0r	2.f	1a	1cc
.	4e	.	.
.	4d	1b-	1dd
.	4c	.	.
.	2d	.	.
=14	=14	=14	=14
0r	2c	1.cc	1ee
.	2A	.	.
.	1d	.	[1ff
.	.	2b-	.
=15	=15	=15	=15
1r	1c	2a	2ff]
.	.	2g	2ee
1F	1r	2.f	2dd
.	.	.	[2cc
.	.	4e	.
=16	=16	=16	=16
1G	2r	1d	2cc]
.	2g	.	2b-
1A	2e	1r	4cc
.	.	.	4b-
.	2f	.	4a
.	.	.	4g
=17	=17	=17	=17
1.B-	2.d	2r	1f
.	.	2b-	.
.	4c	.	.
.	4d	2g	1r
.	4e	.	.
2A	[2f	2a	.
=18	=18	=18	=18
1G	2f]	1b-	1r
.	2e	.	.
1F	4f	1a	2r
.	4e	.	.
.	4d	.	2ff
.	4c	.	.
=19	=19	=19	=19
0r	2B-	2r	2dd
.	2A	2cc	2ee
.	1d	2a	1ff
.	.	2b-	.
=20	=20	=20	=20
2r	1c	1.cc	1.ee
2c	.	.	.
2A	1r	.	.
2B-	.	2b-	2dd
=21	=21	=21	=21
1.c	0r	2a	4cc
.	.	.	4dd
.	.	4g	4ee
.	.	4f	4ff
.	.	2.g	2ee
2B-	.	.	[2dd
.	.	4d	.
=22	=22	=22	=22
1A	0r	4f	4dd]
.	.	4e	4cc
.	.	4e	1cc
.	.	8d	.
.	.	8c	.
1G	.	2.d	.
.	.	.	2b-
.	.	4e	.
=23	=23	=23	=23
1F	2r	4f	1a
.	.	4e	.
.	2f	4d	.
.	.	4c	.
2G	2d	4B-	2r
.	.	4A	.
2C	2e	2G	[2cc
=24	=24	=24	=24
2.F	1.f	2A	2cc]
.	.	2c	2a
4E	.	.	.
2D	.	2d	2b-
2C	2e	2g	[2cc
=25	=25	=25	=25
0G	2.d	0g	2cc]
.	.	.	4b
.	4c	.	4a
.	1d	.	1b
=26	=26	=26	=26
1r	1c	2e	0cc
.	.	1e	.
1A	1c	.	.
.	.	[2f	.
=27	=27	=27	=27
1B-	1d	2f]	0r
.	.	1g	.
[1c	2e	.	.
.	2f	2f	.
=28	=28	=28	=28
2c]	1g	2e	0r
2B-	.	2d	.
2A	2f	2c	.
2G	2e	2B-	.
=29	=29	=29	=29
1F	1f	2c	0r
.	.	1d	.
2G	1r	.	.
[2A	.	4c	.
.	.	4B-	.
=30	=30	=30	=30
2A]	0r	2c	1a
4G	.	1f	.
4F	.	.	.
1G	.	.	1b-
.	.	2e	.
=31	=31	=31	=31
1F	2r	1.a	1.cc
.	1F	.	.
1r	.	.	.
.	2G	2g	2b-
=32	=32	=32	=32
0r	1A	2f	2a
.	.	2e	2g
.	[1B-	[1d	1f
=33	=33	=33	=33
0r	2B-]	2d]	2g
.	2c	2e	1a
.	4d	1f	.
.	4e	.	.
.	[2f	.	4g
.	.	.	4f
=34	=34	=34	=34
1r	2f]	1c	1g
.	2e	.	.
1D	2f	2r	1f
.	2d	2f	.
=35	=35	=35	=35
1E	0c	1g	1r
[1F	.	[1a	2r
.	.	.	[2f
=36	=36	=36	=36
2F]	1r	2a]	2f]
2E	.	2g	2g
2D	1A	2f	2a
2C	.	2e	2a
=37	=37	=37	=37
1BB-	1B-	1d	2r
.	.	.	2dd
1AA	[1c	2r	1ee
.	.	[2a	.
=38	=38	=38	=38
1D	2c]	2a]	1.ff
.	2B-	2b-	.
1C	2A	2.cc	.
.	2G	.	2ee
.	.	4b-	.
=39	=39	=39	=39
2D	1F	1a	2dd
2F	.	.	2.cc
2E	2G	2g	.
.	.	.	4b-
2F	[2A	[2f	4a
.	.	.	4g
=40	=40	=40	=40
1D	2A]	2f]	1f
.	4G	4e	.
.	4F	4d	.
1C	1G	1e	1cc
=41	=41	=41	=41
0F	0F	0f	0a
==	==	==	==
*-	*-	*-	*-
!!!CDT: 1525/^1526/-1594/2/2
!!!OCY: Italia
!!!AGN: Mass (Paraphrase)
!!!AST: renaissance, vocal
!!!ASW: Gregorian Mass
!!!PWK: Masses, Book 7
!!!RNB: Cadence finals: E,C,G,D,F
!!!YOR: Le Opere Complete, v. 23, p. 149
!!!YOO: Rome, Italy: Fratelli Scalera
!!!END: 1992//
!!!EED: John Miller
!!!YEC: Copyright 2000, John Miller
!!!YEN: United States of America
!!!YEM: Rights to all derivative electronic formats reserved.
!!!YEM: Refer to licensing agreement for further details.
!!!YEM: This file must be accompanied by the licensing agreement.
!!!YEM: A copy of the licensing agreement may be found at http://www.music-cog.ohio-state.edu/HumdrumDatabases/Palestrina/license.txt
!!!EMD: converted to Humdrum by Bret Aarden
